src/styles/icons/Dockbar_mypage.svg

<svg width="24" height="24" fill="current" xmlns="http://www.w3.org/2000/svg"><path d="M12 2.99979c-2.45276-.06454-4.83087.84702-6.61208 2.53447C3.60672 7.22172 2.56804 9.54712 2.5 11.9998c.06804 2.4527 1.10672 4.7781 2.88792 6.4655C7.16913 20.1528 9.54724 21.0643 12 20.9998c2.4528.0645 4.8309-.847 6.6121-2.5345 1.7812-1.6874 2.8199-4.0128 2.8879-6.4655-.068-2.45268-1.1067-4.77808-2.8879-6.46554C16.8309 3.84681 14.4528 2.93525 12 2.99979ZM7.32 17.6498c.41-.81 2.89-1.6 4.68-1.6 1.79 0 4.28.79 4.68 1.6-1.3527 1.0065-2.9939 1.5501-4.68 1.5501-1.6861 0-3.32727-.5436-4.68-1.5501Zm10.68-1.3c-1.36-1.57-4.65-2.1-6-2.1-1.35 0-4.68.53-6 2.1-1.01751-1.223-1.58255-2.7592-1.6-4.35.05757-1.9611.88948-3.81954 2.31374-5.16884C8.138 5.48166 10.0387 4.75135 12 4.79979c1.9613-.04844 3.862.68187 5.2863 2.03117 1.4242 1.3493 2.2561 3.20774 2.3137 5.16884-.0174 1.5908-.5825 3.127-1.6 4.35Zm-6-9.75001c-.4255-.01198-.8492.06-1.2469.21185-.3977.15184-.76159.38057-1.07084.67311-.30926.29253-.55783.64315-.73152 1.03179-.17369.38865-.26908.80772-.28074 1.23325.01166.42551.10705.84461.28074 1.23321.17369.3887.42226.7393.73152 1.0318.30925.2926.67314.5213 1.07084.6731.3977.1519.8214.2239 1.2469.2119.425.012.8482-.0601 1.2454-.2121.3971-.1519.7603-.3808 1.0687-.6735.3085-.2926.5561-.6433.7287-1.0319.1726-.3886.2668-.8074.2772-1.23251-.0104-.42507-.1046-.84392-.2772-1.23251-.1726-.38858-.4202-.73927-.7287-1.03193-.3084-.29266-.6716-.52154-1.0687-.6735-.3972-.15197-.8204-.22403-1.2454-.21206Zm0 4.50001c-.2636-.0137-.5174-.1044-.73-.2608-.2126-.1564-.3747-.3717-.4662-.6193-.0916-.24752-.1085-.51649-.0488-.77359.0597-.2571.1935-.49105.3848-.67291.1913-.18186.4317-.30366.6915-.35033.2598-.04666.5276-.01615.7702.08777.2426.10391.4495.27668.595.49691.1454.22024.2231.47829.2235.74224-.0105.36691-.1657.71481-.4317.96771s-.6213.3904-.9883.3823Z"/></svg>

<svg width="24" height="24" viewBox="0 0 24 24" fill="current" xmlns="http://www.w3.org/2000/svg">
<path d="M12 2.99979C9.54724 2.93525 7.16913 3.84681 5.38792 5.53426C3.60672 7.22172 2.56804 9.54712 2.5 11.9998C2.56804 14.4525 3.60672 16.7779 5.38792 18.4653C7.16913 20.1528 9.54724 21.0643 12 20.9998C14.4528 21.0643 16.8309 20.1528 18.6121 18.4653C20.3933 16.7779 21.432 14.4525 21.5 11.9998C21.432 9.54712 20.3933 7.22172 18.6121 5.53426C16.8309 3.84681 14.4528 2.93525 12 2.99979ZM7.32 17.6498C7.73 16.8398 10.21 16.0498 12 16.0498C13.79 16.0498 16.28 16.8398 16.68 17.6498C15.3273 18.6563 13.6861 19.1999 12 19.1999C10.3139 19.1999 8.67273 18.6563 7.32 17.6498ZM18 16.3498C16.64 14.7798 13.35 14.2498 12 14.2498C10.65 14.2498 7.32 14.7798 6 16.3498C4.98249 15.1268 4.41745 13.5906 4.4 11.9998C4.45757 10.0387 5.28948 8.18026 6.71374 6.83096C8.138 5.48166 10.0387 4.75135 12 4.79979C13.9613 4.75135 15.862 5.48166 17.2863 6.83096C18.7105 8.18026 19.5424 10.0387 19.6 11.9998C19.5826 13.5906 19.0175 15.1268 18 16.3498ZM12 6.59979C11.5745 6.58781 11.1508 6.65979 10.7531 6.81164C10.3554 6.96348 9.99151 7.19221 9.68226 7.48475C9.373 7.77728 9.12443 8.1279 8.95074 8.51654C8.77705 8.90519 8.68166 9.32426 8.67 9.74979C8.68166 10.1753 8.77705 10.5944 8.95074 10.983C9.12443 11.3717 9.373 11.7223 9.68226 12.0148C9.99151 12.3074 10.3554 12.5361 10.7531 12.6879C11.1508 12.8398 11.5745 12.9118 12 12.8998C12.425 12.9118 12.8482 12.8397 13.2454 12.6877C13.6425 12.5358 14.0057 12.3069 14.3141 12.0142C14.6226 11.7216 14.8702 11.3709 15.0428 10.9823C15.2154 10.5937 15.3096 10.1749 15.32 9.74979C15.3096 9.32472 15.2154 8.90587 15.0428 8.51728C14.8702 8.1287 14.6226 7.77801 14.3141 7.48535C14.0057 7.19269 13.6425 6.96381 13.2454 6.81185C12.8482 6.65988 12.425 6.58782 12 6.59979ZM12 11.0998C11.7364 11.0861 11.4826 10.9954 11.27 10.839C11.0574 10.6826 10.8953 10.4673 10.8038 10.2197C10.7122 9.97218 10.6953 9.70321 10.755 9.44611C10.8147 9.18901 10.9485 8.95506 11.1398 8.7732C11.3311 8.59134 11.5715 8.46954 11.8313 8.42287C12.0911 8.37621 12.3589 8.40672 12.6015 8.51064C12.8441 8.61455 13.051 8.78732 13.1965 9.00755C13.3419 9.22779 13.4196 9.48584 13.42 9.74979C13.4095 10.1167 13.2543 10.4646 12.9883 10.7175C12.7223 10.9704 12.367 11.1079 12 11.0998Z" fill="current"/>
</svg>
